X:1
T:Title
%%score 1 2 3
L:1/8
M:3/2
K:F
V:1 treble-8 nm="Part_1"
V:2 treble-8 nm="Part_2"
V:3 bass nm="Part_3"
V:1
 F2 A/G/A/B/ c2 A2 z4 | z2 cB A2 A2 z A A2 |[M:2/2] =B2 c>c c2 d2 |[M:3/2] c3 c B2 z d d2 c2 | %4
w: Cur- re- * * * * bant|du- o si- mul et il-|le a- li- us di-|sci- pu- lus et il- le|
[M:2/2] B3 B A2 d2 |[M:3/2] ^c d2 c d A2 A A2 A2 | =B>B c2 A/G/A/_B/c/B/A/G/AG/F/ G2 | %7
w: a- li- us Di-|* * pu- lus præ- cu- cur- rit|ci- ti- us Pe- * * * * * * * * * * *|
[M:2/2] F4 z4 |[M:3/2] z4 z4 z4 | z A c2 A2 z A c2 A2 | z4 z4 z4 | z4 z4 z4 | %12
w: tro||et ve- nit et ve- nit|||
[M:2/2] z2 z A c/B/A/G/FE/D/ | C2 F2 G2 GD |[M:3/2] FGAB cBAG/F/ G3 G |[M:2/2] F4 z2 F2 | %16
w: et ve- * * * * * *|* nit pri- or ad|mo- nu- men- tum a- * * * * * li-|o ad|
[M:3/2] G2 A2 B2 c2 d3 d |[M:4/2] c2 c3 G B2 A2 d3 A c2 | %18
w: mo- nu- men- tum a- li-|o Al- le- lu- ia Al- le- lu-|
[M:3/2] Bd/c/ d/d/c/B/ c/c/B/A/ B/B/A/G/ A/A/G/F/ G2 |[M:2/2] F4 z4 |[M:3/2] z4 z4 z4 |[M:2/2] z8 | %22
w: ia Al- le- lu- ia Al- le- lu- ia Al- le- lu- ia Al- le- lu- ia Al- le- lu-|ia|||
[M:4/2] z2 A/G/A/B/ c3 A GC F4 E2 |[M:7/2] F4 G6 _A2 G8 F8 |] %24
w: Al * * * * le- lu- * * *|ia Al- le- lu- ia|
V:2
 z4 z2 F2 A/G/A/B/ c2 | A2 AG ^F2 F2 z F F2 |[M:2/2] G2 A>A A2 B2 |[M:3/2] B A/G<AA/ B2 z B B2 A2 | %4
w: Cur- re- * * * *|bant du- o si- mul et il-|le a- li- us di-|sci- * * * pu- lus et il- Ir|
[M:2/2] G3 G ^F2 G2 |[M:3/2] EFE>E D4 z4 | z4 z4 z4 |[M:2/2] A3 A A2 A2 | %8
w: a- li- us di-|sci- * * pu- lus||præ- cu- cur- rit|
[M:3/2] =B>B c2 A/G/A/_B/c/B/A/G/AG/F/ G2 | F4 z A c2 A2 z A | c/B/A/G/F E/D/ C2 F2 G2 GD | %11
w: ci- ti- us Pe- * * * * * * * * * * *|tro et ve- nit et|ve- * * * * * * * nit pri- or ad|
 FGAB cBAG/F/ G3 G |[M:2/2] F4 z4 | z4 z4 |[M:3/2] z4 z4 z4 |[M:2/2] z2 F2 G2 A2 | %16
w: * mo- men- tum a- * * * * * li-||||ad mo- nu-|
[M:3/2] B2 c2 d3 c B2 B2 |[M:4/2] A4 z8 z4 |[M:3/2] z4 z4 z4 |[M:2/2] z2 c3 G B2 | %20
w: men- tum a- * * li-|o||Al- le- lu-|
[M:3/2] A2 d3 A c2 Bd/c/ d/d/c/B/ |[M:2/2] c/c/B/A/ B/B/A/G/ A/A/G/F/ G2 | %22
w: ia Al- le- lu- ia Al- le- lu- ia Al- le|lu- ia Al- le- lu- ia Al- le- lu- ia Al- le lu|
[M:4/2] F4 z2 A/G/A/B/ c3 A G4 |[M:7/2] F4 E6 F2 EC F4 E2 F8 |] %24
w: ia Al- * * * * le- lu-|ia Al- le- lu- * * * ia|
V:3
 F,,4 F,,4 F,,4 | F,,2 F,,G,, D,2 D,2 z D, D,2 |[M:2/2] G,,2 F,,>F,, F,,2 B,,2 | %3
[M:3/2] F,,4 B,,3 B,, B,,2 F,,2 |[M:2/2] G,,3 G,, D,2 B,,2 |[M:3/2] A,,4 D,4 ^C,2 D,2 | %6
 G,,2 C,2 F,,4 F,,2 C,2 |[M:2/2] F,, F,2 D, ^C,2 D,2 |[M:3/2] G,,2 C,2 F,,4 F,,2 C,2 | %9
 F,,4 F,,4 F,,3 F,, | F,3 E,/D,/ C,2 F,,2 C,2 G,,2 | D, C,F,D, C,8 |[M:2/2] F,,3 F,, F,3 E,/D,/ | %13
 C,2 F,,2 C,2 G,,2 |[M:3/2] D,C,F,D, C,8 |[M:2/2] F,,2 F,,2 C,2 A,,2 |[M:3/2] G,,2 F,,2 B,,6 B,,2 | %17
[M:4/2] F,,4 C,2 G,,2 F,,2 B,,3 D, A,,2 |[M:3/2] B,,4 F,,2 B,,2 F,,2 C,2 | %19
[M:2/2] F,,2 F,,2 C,2 G,,2 |[M:3/2] F,,2 B,,3 C, A,,2 B,,4 |[M:2/2] F,,2 B,,2 F,,2 C,2 | %22
[M:4/2] F,,4 F,,4 C,8 |[M:7/2] F,,4 C,6 B,,2 C,8 F,,8 |] %24

